;FLAVOR:RepRap
;TIME:1050
;Filament used: 1.50294m
;Layer height: 0.3
;Generated with Cura_SteamEngine master
M104 S220
M109 S220
G28 ;Home
G1 Z15.0 F6000 ;Move the platform down 15mm
;Prime the extruder
G92 E0
G1 F200 E3
G92 E0
;LAYER_COUNT:57
;LAYER:0
M107
G0 F3000 X97.565 Y113.4 Z0.3
;TYPE:SUPPORT
G1 F2100 X103.765 Y113.4 E0.30932
G1 X103.765 Y125.352 E0.90561
G1 X103.412 Y124.999 E0.93051
G1 X97.918 Y124.999 E1.20461
G1 X97.565 Y125.352 E1.22952
G1 X97.559 Y119.479 E1.52252
G1 X97.565 Y113.4 E1.8258
G1 F3000 E-2.1742
G0 F3000 X98.642 Y113.56
G1 F3000 E1.8258
G1 F2100 X98.642 Y124.839 E2.38852
G1 F3000 E-1.61148
G0 F3000 X97.72 Y122.636
G1 F3000 E2.38852
G1 F2100 X103.604 Y122.636 E2.68207
G1 F3000 E-1.31793
G0 F3000 X103.604 Y119.97
G1 F3000 E2.68207
G1 F2100 X97.718 Y119.97 E2.97572
G1 F3000 E-1.02428
G0 F3000 X97.722 Y117.304
G1 F3000 E2.97572
G1 F2100 X103.605 Y117.304 E3.26923
G1 F3000 E-0.73077
G0 F3000 X103.605 Y114.638
G1 F3000 E3.26923
G1 F2100 X97.724 Y114.638 E3.56263
G1 F3000 E-0.43737
G0 F3000 X101.308 Y113.56
G1 F3000 E3.56263
G1 F2100 X101.308 Y124.839 E4.12534
G1 F3000 E0.12534
G0 F3000 X122.26 Y124.999
G1 F3000 E4.12534
G1 F2100 X121.907 Y125.352 E4.15025
G1 X121.907 Y113.4 E4.74654
G1 X128.106 Y113.4 E5.05581
G1 X128.106 Y125.352 E5.65209
G1 X127.753 Y124.999 E5.677
G1 X122.26 Y124.999 E5.95105
G0 F3000 X122.636 Y124.839
G1 F2100 X122.636 Y113.56 E6.51376
G1 F3000 E2.51376
G0 F3000 X122.067 Y114.638
G1 F3000 E6.51376
G1 F2100 X127.946 Y114.638 E6.80706
G1 F3000 E2.80706
G0 F3000 X127.946 Y117.304
G1 F3000 E6.80706
G1 F2100 X122.067 Y117.304 E7.10037
G1 F3000 E3.10037
G0 F3000 X122.066 Y119.97
G1 F3000 E7.10037
G1 F2100 X127.945 Y119.97 E7.39367
G1 F3000 E3.39367
G0 F3000 X127.945 Y122.636
G1 F3000 E7.39367
G1 F2100 X122.066 Y122.636 E7.68698
G1 F3000 E3.68698
G0 F3000 X125.302 Y124.839
G1 F3000 E7.68698
G1 F2100 X125.302 Y113.56 E8.24969
G1 F3000 E4.24969
G0 F3000 X104.765 Y112.4
;TYPE:WALL-INNER
G1 F3000 E8.24969
G1 F2100 X96.565 Y112.4 E8.65879
G1 X96.559 Y119.479 E9.01196
G1 X96.565 Y124.199 E9.24744
G1 X96.565 Y124.399 E9.25742
G1 X96.365 Y124.399 E9.26388
G1 X94.759 Y124.399 E9.344
G1 X94.759 Y105.801 E10.27186
G1 X94.759 Y105.601 E10.28184
G1 X94.959 Y105.601 E10.2883
G1 X99.354 Y105.609 E10.50757
G1 X102.011 Y105.6 E10.64013
G1 X106.559 Y105.6 E10.86703
G1 X106.559 Y124.399 E11.80492
G1 X104.765 Y124.399 E11.89442
G1 X104.765 Y112.4 E12.49305
G0 F3000 X104.365 Y112.8
;TYPE:WALL-OUTER
G1 F2100 X96.965 Y112.8 E12.86224
G1 X96.959 Y119.479 E13.19546
G1 X96.965 Y124.599 E13.45089
G1 X96.965 Y124.799 E13.46087
G1 X96.765 Y124.799 E13.46733
G1 X94.359 Y124.799 E13.58737
G1 X94.359 Y105.4 E14.55519
G1 X94.359 Y105.2 E14.56517
G1 X94.559 Y105.2 E14.57163
G1 X99.354 Y105.209 E14.81085
G1 X102.01 Y105.2 E14.94336
G1 X106.959 Y105.2 E15.19027
G1 X106.959 Y124.799 E16.16806
G1 X104.365 Y124.799 E16.29748
G1 X104.365 Y112.8 E16.89611
G0 F3000 X104.165 Y112.8
G0 X104.299 Y112.219
;TYPE:SKIN
G1 F2100 X97.866 Y105.786 E17.34999
G1 X97.796 Y105.716
G0 F3000 X97.3 Y105.785
G1 F2100 X103.733 Y112.219 E17.80391
G1 X103.803 Y112.289
G0 F3000 X103.168 Y112.219
G1 F2100 X96.732 Y105.783 E18.25801
G1 X96.662 Y105.713
G0 F3000 X96.166 Y105.783
G1 F2100 X102.602 Y112.219 E18.7121
G1 X102.672 Y112.289
G0 F3000 X102.036 Y112.219
G1 F2100 X95.599 Y105.781 E19.1663
G1 X95.529 Y105.711
G0 F3000 X95.033 Y105.781
G1 F2100 X101.471 Y112.219 E19.62054
G1 X101.541 Y112.289
G0 F3000 X100.905 Y112.219
G1 F2100 X94.938 Y106.252 E20.04154
G1 X94.868 Y106.182
G0 F3000 X94.938 Y106.818
G1 F2100 X100.339 Y112.219 E20.42261
G1 X100.409 Y112.289
G0 F3000 X99.774 Y112.219
G1 F2100 X94.938 Y107.384 E20.76378
G1 X94.868 Y107.314
G0 F3000 X94.938 Y107.949
G1 F2100 X99.208 Y112.219 E21.06505
G1 X99.278 Y112.289
G0 F3000 X98.642 Y112.219
G1 F2100 X94.938 Y108.515 E21.32639
G1 X94.868 Y108.445
G0 F3000 X94.938 Y109.081
G1 F2100 X98.077 Y112.219 E21.54783
G1 X98.147 Y112.289
G0 F3000 X97.511 Y112.219
G1 F2100 X94.938 Y109.646 E21.72937
G1 X94.868 Y109.576
G0 F3000 X94.938 Y110.212
G1 F2100 X96.945 Y112.219 E21.87097
G1 X97.015 Y112.289
G0 F3000 X96.385 Y112.224
G1 F2100 X94.938 Y110.778 E21.97303
G1 X94.868 Y110.708
G0 F3000 X94.938 Y111.343
G1 F2100 X96.385 Y112.789 E22.07509
G1 X96.455 Y112.859
G0 F3000 X96.384 Y113.354
G1 F2100 X94.938 Y111.909 E22.17708
G1 X94.868 Y111.839
G0 F3000 X94.938 Y112.475
G1 F2100 X96.383 Y113.919 E22.279
G1 X96.453 Y113.989
G0 F3000 X96.383 Y114.485
G1 F2100 X94.938 Y113.04 E22.38095
G1 X94.868 Y112.97
G0 F3000 X94.938 Y113.606
G1 F2100 X96.382 Y115.05 E22.48283
G1 X96.452 Y115.12
G0 F3000 X96.382 Y115.615
G1 F2100 X94.938 Y114.172 E22.58468
G1 X94.868 Y114.102
G0 F3000 X94.938 Y114.737
G1 F2100 X96.382 Y116.181 E22.68656
G1 X96.452 Y116.251
G0 F3000 X96.381 Y116.746
G1 F2100 X94.938 Y115.303 E22.78837
G1 X94.868 Y115.233
G0 F3000 X94.938 Y115.869
G1 F2100 X96.38 Y117.311 E22.89011
G1 X96.45 Y117.381
G0 F3000 X96.38 Y117.876
G1 F2100 X94.938 Y116.435 E22.99182
G1 X94.868 Y116.365
G0 F3000 X94.938 Y117
G1 F2100 X96.38 Y118.441 E23.09352
G1 X96.45 Y118.511
G0 F3000 X96.379 Y119.006
G1 F2100 X94.938 Y117.566 E23.19516
G1 X94.868 Y117.496
G0 F3000 X94.938 Y118.132
G1 F2100 X96.379 Y119.572 E23.29679
G1 X96.449 Y119.642
G0 F3000 X96.38 Y120.138
G1 F2100 X94.938 Y118.697 E23.3985
G1 X94.868 Y118.627
G0 F3000 X94.938 Y119.263
G1 F2100 X96.38 Y120.705 E23.50024
G1 X96.45 Y120.775
G0 F3000 X96.381 Y121.271
G1 F2100 X94.938 Y119.829 E23.60201
G1 X94.868 Y119.759
G0 F3000 X94.938 Y120.394
G1 F2100 X96.382 Y121.838 E23.7039
G1 X96.452 Y121.908
G0 F3000 X96.382 Y122.404
G1 F2100 X94.938 Y120.96 E23.80578
G1 X94.868 Y120.89
G0 F3000 X94.938 Y121.526
G1 F2100 X96.383 Y122.97 E23.9077
G1 X96.453 Y123.04
G0 F3000 X96.384 Y123.537
G1 F2100 X94.938 Y122.091 E24.00972
G1 X94.868 Y122.021
G0 F3000 X94.938 Y122.657
G1 F2100 X96.385 Y124.103 E24.11178
G1 X96.455 Y124.173
G0 F3000 X95.933 Y124.218
G1 F2100 X94.938 Y123.223 E24.18198
G1 X94.868 Y123.153
G0 F3000 X94.938 Y123.788
G1 F2100 X95.368 Y124.218 E24.21232
G1 F3000 E20.21232
G0 F3000 X104.944 Y123.612
G1 F3000 E24.21232
G1 F2100 X105.55 Y124.218 E24.25508
G1 X105.62 Y124.288
G0 F3000 X106.116 Y124.218
G1 F2100 X104.944 Y123.046 E24.33777
G1 X104.874 Y122.976
G0 F3000 X104.944 Y122.48
G1 F2100 X106.379 Y123.915 E24.43901
G1 X106.449 Y123.985
G0 F3000 X106.379 Y123.349
G1 F2100 X104.944 Y121.915 E24.54023
G1 X104.874 Y121.845
G0 F3000 X104.944 Y121.349
G1 F2100 X106.379 Y122.784 E24.64147
G1 X106.449 Y122.854
G0 F3000 X106.379 Y122.218
G1 F2100 X104.944 Y120.783 E24.74272
G1 X104.874 Y120.713
G0 F3000 X104.944 Y120.218
G1 F2100 X106.379 Y121.652 E24.84393
G1 X106.449 Y121.722
G0 F3000 X106.379 Y121.087
G1 F2100 X104.944 Y119.652 E24.94518
G1 X104.874 Y119.582
G0 F3000 X104.944 Y119.086
G1 F2100 X106.379 Y120.521 E25.04643
G1 X106.449 Y120.591
G0 F3000 X106.379 Y119.955
G1 F2100 X104.944 Y118.52 E25.14767
G1 X104.874 Y118.45
G0 F3000 X104.944 Y117.955
G1 F2100 X106.379 Y119.39 E25.24892
G1 X106.449 Y119.46
G0 F3000 X106.379 Y118.824
G1 F2100 X104.944 Y117.389 E25.35017
G1 X104.874 Y117.319
G0 F3000 X104.944 Y116.823
G1 F2100 X106.379 Y118.258 E25.45141
G1 X106.449 Y118.328
G0 F3000 X106.379 Y117.692
G1 F2100 X104.944 Y116.258 E25.55262
G1 X104.874 Y116.188
G0 F3000 X104.944 Y115.692
G1 F2100 X106.379 Y117.127 E25.65387
G1 X106.449 Y117.197
G0 F3000 X106.379 Y116.561
G1 F2100 X104.944 Y115.126 E25.75512
G1 X104.874 Y115.056
G0 F3000 X104.944 Y114.561
G1 F2100 X106.379 Y115.995 E25.85633
G1 X106.449 Y116.065
G0 F3000 X106.379 Y115.43
G1 F2100 X104.944 Y113.995 E25.95758
G1 X104.874 Y113.925
G0 F3000 X104.944 Y113.429
G1 F2100 X106.379 Y114.864 E26.05882
G1 X106.449 Y114.934
G0 F3000 X106.379 Y114.298
G1 F2100 X104.944 Y112.864 E26.16004
G1 X104.874 Y112.794
G0 F3000 X104.944 Y112.298
G1 F2100 X106.379 Y113.733 E26.26128
G1 X106.449 Y113.803
G0 F3000 X106.379 Y113.167
G1 F2100 X99 Y105.788 E26.78191
G1 X98.93 Y105.718
G0 F3000 X99.565 Y105.788
G1 F2100 X106.379 Y112.601 E27.26264
G1 X106.449 Y112.671
G0 F3000 X106.379 Y112.036
G1 F2100 X100.129 Y105.786 E27.70361
G1 X100.059 Y105.716
G0 F3000 X100.693 Y105.784
G1 F2100 X106.379 Y111.47 E28.10479
G1 X106.449 Y111.54
G0 F3000 X106.379 Y110.904
G1 F2100 X101.256 Y105.782 E28.46621
G1 X101.186 Y105.712
G0 F3000 X101.82 Y105.78
G1 F2100 X106.379 Y110.339 E28.78787
G1 X106.449 Y110.409
G0 F3000 X106.379 Y109.773
G1 F2100 X102.386 Y105.78 E29.0696
G1 X102.316 Y105.71
G0 F3000 X102.951 Y105.78
G1 F2100 X106.379 Y109.207 E29.31143
G1 X106.449 Y109.277
G0 F3000 X106.379 Y108.642
G1 F2100 X103.517 Y105.78 E29.51336
G1 X103.447 Y105.71
G0 F3000 X104.083 Y105.78
G1 F2100 X106.379 Y108.076 E29.67535
G1 X106.449 Y108.146
G0 F3000 X106.379 Y107.51
G1 F2100 X104.648 Y105.78 E29.79745
G1 X104.578 Y105.71
G0 F3000 X105.214 Y105.78
G1 F2100 X106.379 Y106.944 E29.87961
G1 X106.449 Y107.014
G0 F3000 X106.379 Y106.379
G1 F2100 X105.78 Y105.78 E29.92187
G1 X105.71 Y105.71
G1 F3000 E25.92187
G0 F3000 X104.865 Y112.219
G1 F3000 E29.92187
G1 F2100 X98.433 Y105.787 E30.37569
G1 X98.363 Y105.717
G1 F3000 E26.37569
G0 F3000 X119.101 Y105.801
;TYPE:WALL-INNER
G1 F3000 E30.37569
G1 F2100 X119.101 Y105.601 E30.38566
G1 X119.301 Y105.601 E30.39213
G1 X123.696 Y105.609 E30.61139
G1 X126.352 Y105.6 E30.7439
G1 X130.899 Y105.6 E30.97075
G1 X130.899 Y124.399 E31.90864
G1 X129.106 Y124.399 E31.99809
G1 X129.106 Y112.4 E32.59672
G1 X120.907 Y112.4 E33.00577
G1 X120.907 Y124.399 E33.60441
G1 X119.101 Y124.399 E33.69451
G1 X119.101 Y105.801 E34.62237
G0 F3000 X118.701 Y105.4
;TYPE:WALL-OUTER
G1 F2100 X118.701 Y105.2 E34.63234
G1 X118.901 Y105.2 E34.63881
G1 X123.696 Y105.209 E34.87803
G1 X126.351 Y105.2 E35.01049
G1 X131.299 Y105.2 E35.25735
G1 X131.299 Y124.799 E36.23514
G1 X128.706 Y124.799 E36.36451
G1 X128.706 Y112.8 E36.96314
G1 X121.307 Y112.8 E37.33228
G1 X121.307 Y124.799 E37.93091
G1 X118.701 Y124.799 E38.06093
G1 X118.701 Y105.4 E39.02875
G0 F3000 X118.701 Y105.2
G1 F3000 E35.02875
G0 F3000 X119.358 Y105.781
;TYPE:SKIN
G1 F3000 E39.02875
G1 F2100 X125.796 Y112.219 E39.48298
G1 X125.866 Y112.289
G0 F3000 X126.362 Y112.219
G1 F2100 X119.924 Y105.782 E39.93718
G1 X119.854 Y105.712
G0 F3000 X120.491 Y105.783
G1 F2100 X126.927 Y112.219 E40.39128
G1 X126.997 Y112.289
G0 F3000 X127.493 Y112.219
G1 F2100 X121.058 Y105.784 E40.8453
G1 X120.988 Y105.714
G0 F3000 X121.624 Y105.785
G1 F2100 X128.059 Y112.219 E41.29929
G1 X128.129 Y112.289
G0 F3000 X128.624 Y112.219
G1 F2100 X122.191 Y105.786 E41.75317
G1 X122.121 Y105.716
G0 F3000 X122.757 Y105.787
G1 F2100 X129.19 Y112.219 E42.20702
G1 X129.26 Y112.289
G0 F3000 X129.285 Y112.314
G1 F2100 X130.718 Y113.748 E42.30816
G1 X130.788 Y113.818
G0 F3000 X130.718 Y114.313
G1 F2100 X129.285 Y112.88 E42.40927
G1 X129.215 Y112.81
G0 F3000 X129.285 Y113.446
G1 F2100 X130.718 Y114.879 E42.51037
G1 X130.788 Y114.949
G0 F3000 X130.718 Y115.445
G1 F2100 X129.285 Y114.011 E42.61151
G1 X129.215 Y113.941
G0 F3000 X129.285 Y114.577
G1 F2100 X130.718 Y116.01 E42.71262
G1 X130.788 Y116.08
G0 F3000 X130.718 Y116.576
G1 F2100 X129.285 Y115.143 E42.81372
G1 X129.215 Y115.073
G0 F3000 X129.285 Y115.708
G1 F2100 X130.718 Y117.142 E42.91487
G1 X130.788 Y117.212
G0 F3000 X130.718 Y117.707
G1 F2100 X129.285 Y116.274 E43.01597
G1 X129.215 Y116.204
G0 F3000 X129.285 Y116.84
G1 F2100 X130.718 Y118.273 E43.11708
G1 X130.788 Y118.343
G0 F3000 X130.718 Y118.839
G1 F2100 X129.285 Y117.405 E43.21822
G1 X129.215 Y117.335
G0 F3000 X129.285 Y117.971
G1 F2100 X130.718 Y119.404 E43.31932
G1 X130.788 Y119.474
G0 F3000 X130.718 Y119.97
G1 F2100 X129.285 Y118.537 E43.42043
G1 X129.215 Y118.467
G0 F3000 X129.285 Y119.102
G1 F2100 X130.718 Y120.536 E43.52157
G1 X130.788 Y120.606
G0 F3000 X130.718 Y121.101
G1 F2100 X129.285 Y119.668 E43.62268
G1 X129.215 Y119.598
G0 F3000 X129.285 Y120.234
G1 F2100 X130.718 Y121.667 E43.72378
G1 X130.788 Y121.737
G0 F3000 X130.718 Y122.233
G1 F2100 X129.285 Y120.8 E43.82489
G1 X129.215 Y120.73
G0 F3000 X129.285 Y121.365
G1 F2100 X130.718 Y122.798 E43.926
G1 X130.788 Y122.868
G0 F3000 X130.718 Y123.364
G1 F2100 X129.285 Y121.931 E44.0271
G1 X129.215 Y121.861
G0 F3000 X129.285 Y122.497
G1 F2100 X130.718 Y123.93 E44.12821
G1 X130.788 Y124
G0 F3000 X130.441 Y124.218
G1 F2100 X129.285 Y123.062 E44.20977
G1 X129.215 Y122.992
G0 F3000 X129.285 Y123.628
G1 F2100 X129.875 Y124.218 E44.2514
G1 X129.945 Y124.288
G1 F3000 E40.2514
G0 F3000 X120.726 Y124.12
G1 F3000 E44.2514
G1 F2100 X119.28 Y122.674 E44.35342
G1 X119.21 Y122.604
G0 F3000 X119.28 Y122.108
G1 F2100 X120.726 Y123.554 E44.45544
G1 X120.796 Y123.624
G0 F3000 X120.726 Y122.989
G1 F2100 X119.28 Y121.543 E44.55747
G1 X119.21 Y121.473
G0 F3000 X119.28 Y120.977
G1 F2100 X120.726 Y122.423 E44.65949
G1 X120.796 Y122.493
G0 F3000 X120.726 Y121.857
G1 F2100 X119.28 Y120.411 E44.76151
G1 X119.21 Y120.341
G0 F3000 X119.28 Y119.846
G1 F2100 X120.726 Y121.292 E44.86354
G1 X120.796 Y121.362
G0 F3000 X120.726 Y120.726
G1 F2100 X119.28 Y119.28 E44.96556
G1 X119.21 Y119.21
G0 F3000 X119.28 Y118.714
G1 F2100 X120.726 Y120.16 E45.06758
G1 X120.796 Y120.23
G0 F3000 X120.726 Y119.595
G1 F2100 X119.28 Y118.149 E45.16961
G1 X119.21 Y118.079
G0 F3000 X119.28 Y117.583
G1 F2100 X120.726 Y119.029 E45.27163
G1 X120.796 Y119.099
G0 F3000 X120.726 Y118.463
G1 F2100 X119.28 Y117.017 E45.37365
G1 X119.21 Y116.947
G0 F3000 X119.28 Y116.452
G1 F2100 X120.726 Y117.898 E45.47567
G1 X120.796 Y117.968
G0 F3000 X120.726 Y117.332
G1 F2100 X119.28 Y115.886 E45.5777
G1 X119.21 Y115.816
G0 F3000 X119.28 Y115.32
G1 F2100 X120.726 Y116.766 E45.67972
G1 X120.796 Y116.836
G0 F3000 X120.726 Y116.2
G1 F2100 X119.279 Y114.754 E45.78178
G1 X119.209 Y114.684
G0 F3000 X119.279 Y114.188
G1 F2100 X120.726 Y115.635 E45.88387
G1 X120.796 Y115.705
G0 F3000 X120.726 Y115.069
G1 F2100 X119.279 Y113.622 E45.98597
G1 X119.209 Y113.552
G0 F3000 X119.279 Y113.057
G1 F2100 X120.726 Y114.503 E46.08802
G1 X120.796 Y114.573
G0 F3000 X120.726 Y113.938
G1 F2100 X119.279 Y112.491 E46.19012
G1 X119.209 Y112.421
G0 F3000 X119.279 Y111.925
G1 F2100 X120.726 Y113.372 E46.29221
G1 X120.796 Y113.442
G0 F3000 X120.726 Y112.806
G1 F2100 X119.279 Y111.36 E46.39427
G1 X119.209 Y111.29
G0 F3000 X119.279 Y110.794
G1 F2100 X120.726 Y112.241 E46.49636
G1 X120.796 Y112.311
G0 F3000 X121.27 Y112.219
G1 F2100 X119.279 Y110.228 E46.63684
G1 X119.209 Y110.158
G0 F3000 X119.279 Y109.663
G1 F2100 X121.836 Y112.219 E46.81721
G1 X121.906 Y112.289
G0 F3000 X122.402 Y112.219
G1 F2100 X119.279 Y109.097 E47.03752
G1 X119.209 Y109.027
G0 F3000 X119.279 Y108.531
G1 F2100 X122.967 Y112.219 E47.29773
G1 X123.037 Y112.289
G0 F3000 X123.533 Y112.219
G1 F2100 X119.279 Y107.966 E47.59784
G1 X119.209 Y107.896
G0 F3000 X119.279 Y107.4
G1 F2100 X124.099 Y112.219 E47.93788
G1 X124.169 Y112.289
G0 F3000 X124.665 Y112.219
G1 F2100 X119.279 Y106.834 E48.31786
G1 X119.209 Y106.764
G0 F3000 X119.279 Y106.268
G1 F2100 X125.23 Y112.219 E48.73773
G1 X125.3 Y112.289
G1 F3000 E44.73773
G0 F3000 X130.718 Y112.05
G1 F3000 E48.73773
G1 F2100 X124.454 Y105.786 E49.17969
G1 X124.384 Y105.716
G0 F3000 X125.017 Y105.784
G1 F2100 X130.718 Y111.485 E49.58193
G1 X130.788 Y111.555
G0 F3000 X130.718 Y110.919
G1 F2100 X125.581 Y105.782 E49.94437
G1 X125.511 Y105.712
G0 F3000 X126.145 Y105.781
G1 F2100 X130.718 Y110.353 E50.26699
G1 X130.788 Y110.423
G0 F3000 X130.718 Y109.788
G1 F2100 X126.71 Y105.78 E50.54977
G1 X126.64 Y105.71
G0 F3000 X127.276 Y105.78
G1 F2100 X130.718 Y109.222 E50.79262
G1 X130.788 Y109.292
G0 F3000 X130.718 Y108.656
G1 F2100 X127.842 Y105.78 E50.99554
G1 X127.772 Y105.71
G0 F3000 X128.407 Y105.78
G1 F2100 X130.718 Y108.091 E51.15859
G1 X130.788 Y108.161
G0 F3000 X130.718 Y107.525
G1 F2100 X128.973 Y105.78 E51.28171
G1 X128.903 Y105.71
G0 F3000 X129.539 Y105.78
G1 F2100 X130.718 Y106.959 E51.3649
G1 X130.788 Y107.029
G0 F3000 X130.718 Y106.394
G1 F2100 X130.104 Y105.78 E51.40822
G1 X130.034 Y105.71
G1 F3000 E47.40822
G0 F3000 X123.89 Y105.788
G1 F3000 E51.40822
G1 F2100 X130.718 Y112.616 E51.88997
G1 X130.788 Y112.686
G0 F3000 X130.718 Y113.182
